!!!!SEGMENT: pl-kk--kk-i-474--001-005_studzinski-piotr--quarta-missa-benedictus.krn
!!!cenid: 18xx:1388
!!!COM: Studziński, Piotr
!!!COM-rismid: pe50044409
!!!CDT: 1825/10/16-1869/04/20
!!!CNT: Polish
!!!OPR: Quarta Missa
!!!OTL: Benedictus
!!!OMV: 005
!!!PDT: 1856
!!!AGN: Sacred; Mass
!!!SMS-siglum: PL-Kk
!!!SMS-shelfmark: Kk.I.474
!!!SMS-shelfwork: 001-005 M
!!!SMS-variant: Alto: PL-Kk Kk.I.474: 19-20
!!!SMS-altvar: Alto: PL-Kk Kk.I.474: 16
!!!NIFC-rismid: 1001140244
!!!URL-scan: http://repozytorium.nifc.pl/skany/pl-kk-nut--i-474
!!!ONB-nifc: UWAGA: części Mszy: 1. Kyrie, 2. Gloria, 3. Credo, 4. Sanctus, 5. Benedictus, 6. Agnus, 7. Dona. Uwaga: Gloria zapisana osobno na ostatnich stronach
!!!key:
**kern	**text	**text	**dynam	**kern	**text	**dynam	**kern	**text	**dynam	**kern	**text	**kern	**text	**dynam	**kern	**text	**dynam
*part6	*part6	*part6	*part6	*part5	*part5	*part5	*part4	*part4	*part4	*part3	*part3	*part2	*part2	*part2	*part1	*part1	*part1
*group	*group	*group	*group	*group	*group	*group	*group1	*group1	*group1	*group1	*group1	*group1	*group1	*group1	*group1	*	*
*staff6	*staff6	*staff6	*	*staff5	*staff5	*	*staff4	*staff4	*	*staff3	*staff3	*staff2	*staff2	*	*staff1	*staff1	*
*Iorgan	*	*	*	*Iorgan	*	*	*Iempty	*	*	*Itenor	*	*Ialto	*	*	*Isoprn	*	*
*I"Organo.	*	*	*	*I"Organo.	*	*	*I"Basſo Duo	*	*	*I"Tenor	*	*I"Alto	*	*	*I"Soprano	*	*
*I'org	*	*	*	*I'org	*	*	*I'B	*	*	*I'T	*	*I'A	*	*	*I'S	*	*
*clefF4	*	*	*	*clefG2	*	*	*clefF4	*	*	*clefC4	*	*clefG2	*	*	*clefG2	*	*
*k[b-e-]	*	*	*	*k[b-e-]	*	*	*k[b-e-]	*	*	*k[b-e-]	*	*k[b-e-]	*	*	*k[b-e-]	*	*
*B-:	*	*	*	*B-:	*	*	*B-:	*	*	*B-:	*	*B-:	*	*	*B-:	*	*
*M4/4	*	*	*	*M4/4	*	*	*M4/4	*	*	*M4/4	*	*M4/4	*	*	*M4/4	*	*
*met(c)	*	*	*	*met(c)	*	*	*met(c)	*	*	*met(c)	*	*met(c)	*	*	*met(c)	*	*
=1	=1	=1	=1	=1	=1	=1	=1	=1	=1	=1	=1	=1	=1	=1	=1	=1	=1
*^	*	*	*	*	*	*	*	*	*	*	*	*	*	*	*	*	*
*2\right	*2\right	*	*	*	*2\right	*2\right	*	*2\right	*	*	*2\right	*	*2\right	*	*	*2\right	*	*
!	!	!	!	!	!LO:TX:t=P:problem:niektóre oznaczenia agogiczne, dynamiczne, nuty dopisane czerwonym tuszem	!	!	!	!	!	!	!	!LO:TX:a:i:t=andantino	!	!	!LO:TX:t=P:problem:większość adnotacj i oznaczeń dynamicznych, agogicznych (w tym łuki frazowe) itp zapisane czerwonym tuszem	!	!
!	!	!	!	!	!LO:TX:a:i:t=andantino	!	!	!LO:TX:a:i:t=andante	!	!	!	!	!LO:TX:t=P:problem:wszystkie adnotacje i oznaczenia dynamiczne, agogiczne (w tym łuki frazowe) itp zapisane czerwonym tuszem	!	!	!LO:TX:a:i:t=andantino	!	!
!	!	!	!	!	!LO:TX:B:i:a:t=Benedictus	!	!LO:DY:b:rj	!LO:TX:t=P:problem:wszystkie adnotacje i oznaczenia dynamiczne, agogiczne (w tym łuki frazowe) itp zapisane czerwonym tuszem	!	!	!LO:TX:Bi:a:t=Benedictus	!	!LO:TX:Bi:a:t=Benedictus	!	!	!LO:TX:a:B:i:t=Benedictus	!	!
!	!	!	!	!	!LO:TX:t=P:problem:napis "Benedictus" przed akoladą	!	!	!	!	!	!LO:TX:t=P:problem:napis "Benedictus" na pięciolinii przed kluczem	!	!LO:TX:t=P:problem:napis "Benedictus" na pięciolinii przed kluczem	!	!	!LO:TX:t=P:problem:napis "Benedictus" na pięciolinii przed kluczem	!	!
!	!	!	!	!	!LO:TX:t=P:problem:pojedyńcze kaudy z prawej strony	!	!	!LO:TX:Bi:a:t=Benedictus	!	!LO:DY:b:rj	!LO:TX:t=P:problem:pojedyńcze kaudy z prawej strony	!	!	!	!LO:DY:b:rj	!	!	!LO:DY:b:rj
2.F/	2BB-\	Be-	.	.	2d 2B-/	.	pp	2BB-/	Be-	pp	2.F/	Be-	2B-/	Be-	p	2d/	Be-	p
.	4C\	.	.	.	4e- 4A/	.	.	4C/	.	.	.	.	4A/	.	.	4e-/	.	.
4B-/	4D\	-ne-	.	.	4f 4B-/	.	.	4D/	-ne-	.	4B-\	-ne-	4B-/	-ne-	.	4f/	-ne-	.
=2	=2	=2	=2	=2	=2	=2	=2	=2	=2	=2	=2	=2	=2	=2	=2	=2	=2	=2
4B-/	4E-\	-di-	.	.	4g 4B-/	.	.	4E-\	-di-	.	4B-\	-di-	4B-/	-di-	.	(<4g/	-di-	.
4c/	4F\	.	.	.	4a 4e-/	.	.	4F\	.	.	4c\	.	4e-/	.	.	4a/)	.	.
4c/	4G\	-ctus	.	.	4b- 4e-/	.	.	4G\	-ctus	.	4c\	-ctus	4e-/	-ctus	.	4b-\	-ctus	.
4e-/	4A\	qui	.	.	4cc 4f/	.	.	4A\	qui	.	4e-X\	qui	4f/	qui	.	4cc\	qui	.
=3	=3	=3	=3	=3	=3	=3	=3	=3	=3	=3	=3	=3	=3	=3	=3	=3	=3	=3
*	*	*	*	*	*^	*	*	*	*	*	*	*	*	*	*	*	*	*
4d/	4B-\	ve-	.	.	4dd/	2f\	.	.	(>4B-\	ve-	.	4d\	ve-	2f/	ve-	.	(>4dd\	ve-	.
2B-/	4D\	.	.	.	4b-\	.	.	.	4D\)	.	.	4B-\	.	.	.	.	4b-\)	.	.
.	4E-\	-nit	.	.	4g/	4g\	.	.	4E-\	-nit	.	4B-\	-nit	4g/	-nit	.	4g/	-nit	.
4G/	4G\	in	.	.	4e-/	4e-\	.	.	4G\	in	.	4G\	in	4e-/	in	.	4e-/	in	.
!	!	!	!	!	!	!	!	!	!	!	!	!LO:LB:g=original	!	!	!	!	!	!	!
=4	=4	=4	=4	=4	=4	=4	=4	=4	=4	=4	=4	=4	=4	=4	=4	=4	=4	=4	=4
4.B-/	4.F\	no-	.	.	2d/	2ryy	.	.	4.F\	no-	.	4.B-\	no-	4.d/	no-	.	4.d/	no-	.
8B-/	8F\	-mi-	.	.	.	.	.	.	8F\	-mi-	.	8B-\	-mi-	8d/	-mi-	.	8d/	-mi-	.
!	!	!	!	!	!LO:TX:a:i:t=alto solo	!	!	!	!	!	!	!	!	!	!	!	!	!	!
4A/	4F\	-ne	.	.	4c/	4ryy	.	.	4F\	-ne	.	4A\	-ne	4c/	-ne	.	4c/	-ne	.
!	!	!	!	!	!	!	!	!	!	!	!	!	!	!LO:TX:b:i:t=dol&colon;	!	!	!	!	!
!	!	!	!	!	!	!	!	!	!	!	!	!	!	!LO:TX:i:t=solo:rj	!	!	!	!	!
4r	4ryy	.	.	.	4r	8.f\	Be-	.	4r	.	.	4r	.	8.f/	Be-	.	4r	.	.
.	.	.	.	.	.	16f\	-ne-	.	.	.	.	.	.	16f/	-ne-	.	.	.	.
*v	*v	*	*	*	*	*	*	*	*	*	*	*	*	*	*	*	*	*	*
!LO:LB:g=original	!	!	!	!LO:LB:g=original	!LO:LB:g=original	!	!	!LO:LB:g=original	!	!	!	!	!LO:LB:g=original	!	!	!LO:LB:g=original	!	!
=5	=5	=5	=5	=5	=5	=5	=5	=5	=5	=5	=5	=5	=5	=5	=5	=5	=5	=5
!	!	!	!LO:DY:b:rj	!	!	!	!LO:DY:b:rj	!	!	!LO:DY:b:rj	!	!	!	!	!	!LO:TX:t=1	!	!
4r	.	.	ppp	2b-/	2b-\	-dic-	pp	4r	.	pp	4r	.	2b-\	-di-	.	1r	.	.
2d 2F 2BB-\	Be-	.	.	.	.	.	.	2F 2BB-\	Be-	.	2d\	Be-	.	.	.	.	.	.
!	!	!	!	!LO:TX:t=1	!LO:TX:t=P:problem:niejednoznaczny zapis łuku (kreska)	!	!	!	!	!	!	!	!	!	!	!	!	!
.	.	.	.	2rdd	(<4.B-/	-tus	.	.	.	.	.	.	4.B-/	-ctus	.	.	.	.
4d 4F 4BB-\	-ne-	.	.	.	.	.	.	4F 4BB-\	-ne-	.	4d\	-ne-	.	.	.	.	.	.
.	.	.	.	.	8c/)	qui	.	.	.	.	.	.	8c/	qui	.	.	.	.
=6	=6	=6	=6	=6	=6	=6	=6	=6	=6	=6	=6	=6	=6	=6	=6	=6	=6	=6
!LO:N:n=1:vis=xstem	!	!	!	!LO:TX:a:i:t=Soprano	!	!	!	!	!	!	!	!	!	!	!	!LO:TX:a:i:t=solo	!	!
2e- 2F 2C\	-dic-	.	.	2rdd	2B-/	ve-	.	2F 2C\	-di-	.	2e-\	-di-	2B-/	ve-	.	2r	.	.
!LO:N:n=1:vis=xstem	!	!	!	!	!	!	!	!	!	!	!	!	!	!	!	!	!	!
4e- 4F 4C\	-tus.	.	.	4ryy	4A/	-nit	.	4F 4C\	-ctus	.	4e-\	-ctus	4A/	-nit	.	4r	.	.
4r	.	.	.	8.f/	4ryy	Be-	.	4r	.	.	4r	.	4r	.	.	8.f/	Be-	.
.	.	.	.	16f/	.	-ne-	.	.	.	.	.	.	.	.	.	16f/	-ne-	.
*	*	*	*	*v	*v	*	*	*	*	*	*	*	*	*	*	*	*	*
=7	=7	=7	=7	=7	=7	=7	=7	=7	=7	=7	=7	=7	=7	=7	=7	=7	=7
*^	*	*	*	*	*	*	*	*	*	*	*	*	*	*	*	*	*
4r	2.ryy	.	.	.	2cc/	-dic-	.	4r	.	.	4r	.	4r	.	.	2cc\	-dic-	.
(>\2c 2F\ 2AA\	.	Be-	.	.	.	.	.	2F 2AA\	Be-	.	2c\	Be-	[<2c/	Be-	.	.	.	.
.	.	.	.	.	4.e-/	-tus	.	.	.	.	.	.	.	.	.	4.e-/	-tus	.
(<8c/L)	4F 4AA\	-ne-	.	.	.	.	.	4F 4AA\	-ne-	.	8c\L	.	8c/L]	.	.	.	.	.
8d/J)	.	.	.	.	8f/	qui	.	.	.	.	8d\J	-ne-	8d/J	-ne-	.	8f/	qui	.
=8	=8	=8	=8	=8	=8	=8	=8	=8	=8	=8	=8	=8	=8	=8	=8	=8	=8	=8
2c/	2F 2BB-\	dic-	.	.	2e-/	ve-	.	2F 2BB-\	-di-	.	2c\	-di-	2c/	-dic-	.	2e-/	ve-	.
!LO:TX:a:i:t=Tenor:rj	!	!	!	!	!	!	!	!	!	!	!	!	!	!	!	!	!	!
4ryy	4B- 4F 4BB-\	-tus	.	.	4d/	-nit	.	4F 4BB-\	-ctus	.	4B-\	-ctus	4B-/	-tus	.	4d/	-nit	.
!	!	!	!	!	!	!	!	!	!	!	!LO:TX:a:i:t=solo	!	!	!	!	!	!	!
!	!	!	!	!	!	!	!	!	!	!	!LO:N:vis=8	!	!	!	!	!	!	!
8.F/	4r	Be-	.	.	4r	.	.	4r	.	.	8.F/	Be-	4r	.	.	4r	.	.
.	.	.	.	.	.	.	.	.	.	.	.	.	.	.	.	.	.	.
16F/	.	-ne-	.	.	.	.	.	.	.	.	16F/	-ne-	.	.	.	.	.	.
*v	*v	*	*	*	*	*	*	*	*	*	*	*	*	*	*	*	*	*
!	!	!	!	!	!	!	!	!	!	!LO:LB:g=original	!	!	!	!	!	!	!
=9	=9	=9	=9	=9	=9	=9	=9	=9	=9	=9	=9	=9	=9	=9	=9	=9	=9
!	!	!	!	!LO:TX:b:t=P:problem:pierwsza linijka słów jest zapisana nad nutami na pięciolinii (do 3 miary w takcie 12)	!	!	!	!	!	!	!	!LO:TX:b:t=4	!	!	!LO:TX:b:t=3	!	!
!	!	!	!	!	!	!	!	!	!	!	!	!LO:N:vis=00	!	!	!LO:N:vis=0	!	!
4r	.	.	.	2f</	-di-	.	4r	.	.	2f\	-di-	00r	.	.	0r	.	.
!LO:TX:b:t=P:problem:"qui" pod 4r	!	!	!	!	!	!	!	!	!	!	!	!	!	!	!	!	!
4B- 4D\	.	qui ve-	.	.	.	.	4D\	qui	.	.	.	.	.	.	.	.	.
!LO:N:n=1:vis=2	!	!	!	!	!	!	!	!	!	!	!	!	!	!	!	!	!
4f# 4c 4A 4D\	.	-nit	.	2f#X</	-ctus	.	4D\	ve-	.	2f#X\	-ctus	.	.	.	.	.	.
*tremolo	*	*	*	*	*	*	*	*	*	*	*	*	*	*	*	*	*
8c 8A 8D\L	.	in	.	.	.	.	8D\	-nit	.	.	.	.	.	.	.	.	.
8c 8A 8D\J	.	.	.	.	.	.	8D\	in	.	.	.	.	.	.	.	.	.
*Xtremolo	*	*	*	*	*	*	*	*	*	*	*	*	*	*	*	*	*
!	!	!	!	!	!	!	!LO:LB:g=original	!	!	!	!	!	!	!	!	!	!
=10	=10	=10	=10	=10	=10	=10	=10	=10	=10	=10	=10	=10	=10	=10	=10	=10	=10
*^	*	*	*	*	*	*	*	*	*	*	*	*	*	*	*	*	*
*tremolo	*	*	*	*	*	*	*	*	*	*	*	*	*	*	*	*	*	*
!LO:TX:t=P:problem:w źródle dźwięki w akordzie "4D i 4F" przekreślone czerownym atramentem. Dopisane dwie ósemki "8D 8D"	!	!	!	!	!	!	!	!	!	!	!	!	!	!	!	!	!	!
!LO:TX:t=P:problem:złe renderowanie tekstu	!	!	!	!	!	!	!	!	!	!	!	!	!	!	!	!	!	!
8c 8A 8F 8D\L	8D	no-	.	.	4f#X</	Be-	.	4E-\	no-	.	4f#X\	Be-	.	.	.	.	.	.
8c 8A 8F 8D\J	8D	mi-	.	.	.	.	.	.	.	.	.	.	.	.	.	.	.	.
*Xtremolo	*	*	*	*	*	*	*	*	*	*	*	*	*	*	*	*	*	*
4B- 4G 4E-\	2.ryy	-ne	.	.	8g</	.	.	4E-\	-mi-	.	8g\L	.	.	.	.	.	.	.
.	.	.	.	.	8d</	-ne-	.	.	.	.	8d\J	-ne-	.	.	.	.	.	.
!LO:LB:g=original	!LO:LB:g=original	!	!	!	!LO:LB:g=original	!	!	!	!	!	!	!	!	!	!	!	!	!
4r	.	-dic-	.	.	8fn</L	-dic-	.	4E-\	-ne	.	8fn\L	-dic-	.	.	.	.	.	.
.	.	.	.	.	8e-</J	.	.	.	.	.	8e-\J	.	.	.	.	.	.	.
4r	.	-tus	.	.	8d</	-tus	.	4r	.	.	8d\	-tus	.	.	.	.	.	.
.	.	qui	.	.	8c</	qui	.	.	.	.	8c\	qui	.	.	.	.	.	.
=11	=11	=11	=11	=11	=11	=11	=11	=11	=11	=11	=11	=11	=11	=11	=11	=11	=11	=11
*	*	*	*	*	*	*	*	*^	*	*	*	*	*	*	*	*	*	*
!	!	!	!	!	!	!	!	!LO:TX:b:i:t=solo	!	!	!	!	!	!	!	!	!	!	!
4ryy	4ryy	.	.	.	8B-</L	ve-	.	4r	4ryy	.	.	8B-\L	ve-	.	.	.	1r	.	.
.	.	.	.	.	8A</J	.	.	.	.	.	.	8A\J	.	.	.	.	.	.	.
8A\L	4F\	.	in	.	8c</	-nit	.	8A/L	4F\	in	.	8c\	-nit	.	.	.	.	.	.
8B-\J	.	.	.	.	8d</	in	.	8B-/J	.	.	.	8d\	in	.	.	.	.	.	.
8c\L	4F\	.	no-	.	8e-</L	no-	.	8c/L	4F\	no-	.	8e-\L	no-	.	.	.	.	.	.
8d\J	.	.	.	.	8f</J	.	.	8d/J	.	.	.	8f\J	.	.	.	.	.	.	.
8e-\	8F\	.	-mi-	.	8g</	-mi-	.	8e-L 8F\	4ryy	-mi-	.	8g\	-mi-	.	.	.	.	.	.
8e-\	8F\	.	-ne	.	8g</	-ne	.	8e-J 8F\	.	-ne	.	8g\	-ne	.	.	.	.	.	.
=12	=12	=12	=12	=12	=12	=12	=12	=12	=12	=12	=12	=12	=12	=12	=12	=12	=12	=12	=12
*	*^	*	*	*	*	*	*	*	*	*	*	*	*	*	*	*	*	*	*
!	!	!	!	!	!	!	!	!	!LO:N:vis=xstem	!	!	!	!	!	!	!	!	!	!	!
4e-\	2F\	4.AA\	.	Do-	.	4g</	Do-	.	4e-\	4.AA\	Do-	.	4g\	Do-	.	.	.	2r	.	.
!	!	!	!	!	!	!	!	!	!	!	!	!	!LO:TX:t=P:problem:przednutki dopisane ołówkiem	!	!	!	!	!	!	!
.	.	.	.	.	.	16qqa</	.	.	16qqf/L	.	.	.	16qqa/L	.	.	.	.	.	.	.
!	!	!	!	!	!	!LO:N:xstem	!	!	!	!	!	!	!	!	!	!	!	!	!	!
.	.	.	.	.	.	16qqg</	.	.	16qqe-/J	.	.	.	16qqg/J	.	.	.	.	.	.	.
8d\L	.	.	.	.	.	8f</L	-mi-	.	8d\L	.	.	.	8f\L	-mi-	.	.	.	.	.	.
8c\J	.	8AA\	.	.	.	8e-</J	.	.	8c\J	8AA\	-mi-	.	8e-\J	.	.	.	.	.	.	.
!	!	!	!	!	!	!	!	!	!	!	!	!	!	!	!	!	!	!	!	!LO:DY:b:rj
4B-\	4F\	4BB-\	.	-mini	.	4d</	-ni	.	4B-\	4BB-\	-ni	.	4d\	-ni	.	.	.	4r	.	p
4r	4ryy	4ryy	.	.	.	8.f/	Be-	.	4r	4ryy	.	.	4r	.	.	.	.	8.f/	Be-	.
.	.	.	.	.	pp	16f/	-ne-	.	.	.	.	.	.	.	.	.	.	16f/	-ne-	.
*	*v	*v	*	*	*	*	*	*	*	*	*	*	*	*	*	*	*	*	*	*
*v	*v	*	*	*	*	*	*	*v	*v	*	*	*	*	*	*	*	*	*	*
!	!	!	!	!	!	!	!	!	!	!	!LO:LB:g=original	!	!	!	!LO:LB:g=original	!	!
=13	=13	=13	=13	=13	=13	=13	=13	=13	=13	=13	=13	=13	=13	=13	=13	=13	=13
*	*	*	*	*^	*	*	*	*	*	*	*	*	*	*	*	*	*
!	!	!	!	!	!	!	!LO:HP:b	!	!	!	!	!	!	!	!LO:DY:b:rj	!	!	!
4r	.	.	.	2b-/	4r	-dic-	>	4r	.	.	4r	.	4r	.	p	2b-\	-di-	.
4d 4B-\	in	.	.	.	4f\	.	]	4B-\	in	.	4d\	in	4f/	in	.	.	.	.
4d 4B-\	no-	.	.	4.b-/	4f\	-tus	.	4B-\	no-	.	4d\	no-	4f/	no-	.	4.b-\	-ctus	.
8d 8B-\	-mi-	.	.	.	8f\	.	.	8B-\	-mi-	.	8d\	-mi-	8f/	-mi-	.	.	.	.
8d 8B-\	-ne	.	.	8cc/	8f\	qui	.	8B-\	-ne	.	8d\	-ne	8f/	-ne	.	8cc\	qui	.
!	!	!	!	!	!	!	!	!LO:LB:g=original	!	!	!	!	!LO:LB:g=original	!	!	!	!	!
=14	=14	=14	=14	=14	=14	=14	=14	=14	=14	=14	=14	=14	=14	=14	=14	=14	=14	=14
!	!	!	!	!	!	!	!	!LO:N:n=1:vis=4	!	!	!	!	!	!	!	!	!	!
4c 4F\	Do-	.	.	2b-/	4e-\	ve-	.	4.c 4.F\	Do-	.	4.c\	Do-	4.e-/	Do-	.	2b-\	ve-	.
.	.	.	.	.	.	.	.	.	.	.	.	.	.	.	.	.	.	.
!LO:TX:a:t=P:problem:kreska przed nutą	!	!	!	!	!LO:TX:b:t=P:problem:niejasne oznaczenie przed nutą	!	!	!	!	!	!	!	!	!	!	!	!	!
8c 8F\	-mi-	.	.	.	8e-\	.	.	.	.	.	.	.	.	.	.	.	.	.
8ryy	.	.	.	.	8ryy\	.	.	8F\	-mi-	.	8c\	-mi-	8e-/	-mi-	.	.	.	.
4c 4F\	-ni	.	.	4a/	4e-\	-nit	.	4F\	-ni	.	4c\	-ni	4e-/	-ni	.	4a\	-nit	.
4r	.	.	.	8f/	4r	Be-	.	4r	.	.	4r	.	4r	.	.	8.f/	Be-	.
.	.	.	.	16ryy	.	.	.	.	.	.	.	.	.	.	.	.	.	.
.	.	.	.	16f/	.	-ne-	.	.	.	.	.	.	.	.	.	16f/	-ne-	.
!LO:LB:g=original	!	!	!	!LO:LB:g=original	!LO:LB:g=original	!	!	!	!	!	!	!	!	!	!	!	!	!
=15	=15	=15	=15	=15	=15	=15	=15	=15	=15	=15	=15	=15	=15	=15	=15	=15	=15	=15
4r	.	.	.	2cc/	4r	-dic-	.	4r	.	.	4r	.	4r	.	.	2cc\	-di-	.
4e- 4A\	in	.	.	.	4f\	.	.	4A\	in	.	4e-\	in	4f/	in	.	.	.	.
4e- 4A\	no-	.	.	4.cc/	4f\	-tus	.	4A\	no-	.	4e-\	no-	4f/	no-	.	4.cc\	-ctus	.
8e- 8A\	-mi-	.	.	.	8f\	.	.	8A\	-mi-	.	8e-\	-mi-	8f/	-mi-	.	.	.	.
8e- 8A\	-ne	.	.	8dd/	8f\	qui	.	8A\	-ne	.	8e-\	-ne	8f/	-ne	.	8dd\	qui	.
=16	=16	=16	=16	=16	=16	=16	=16	=16	=16	=16	=16	=16	=16	=16	=16	=16	=16	=16
4.e- 4.A\	do-	.	.	2cc/	4.f\	ve-	.	4.A\	Do-	.	4.e-\	do-	4.f/	Do-	.	2cc\	ve-	.
8e- 8A\	-mi-	.	.	.	8f\	.	.	8A\	-mi-	.	8e-\	-mi-	8f/	-mi-	.	.	.	.
4d 4B-\	-ni	.	.	(<8b-/L	4f\	-nit	.	4B-\	-ni	.	4d\	-ni	4f/	-ni	.	8b-/L	-nit	.
.	.	.	.	8d/J)	.	.	.	.	.	.	.	.	.	.	.	8d/J	.	.
4r	.	.	.	(<8f/L	4ryy	in	.	4r	.	.	4r	.	4r	.	.	8f/L	in	.
.	.	.	.	8b-/J)	.	.	.	.	.	.	.	.	.	.	.	8b-/J	.	.
!	!	!	!	!	!	!	!	!	!	!	!LO:LB:g=original	!	!	!	!	!	!	!
=17	=17	=17	=17	=17	=17	=17	=17	=17	=17	=17	=17	=17	=17	=17	=17	=17	=17	=17
4ryy	.	.	.	1dd	4r	no-	.	4r	.	.	4r	.	4r	.	.	1dd	no-	.
!	!	!	!	!	!	!	!	!	!	!	!	!	!	!	!	!	!	!LO:DY:a
(>4d 4B-\	Be-	.	.	.	4f\	.	.	4B-\	Be-	.	4d\	Be-	4f/	Be-	.	.	.	<
4c 4A\)	.	.	.	.	4f#X\	.	.	4A\	.	.	4c\	.	4f#X/	.	.	.	.	.
4c 4A\	-ne-	.	.	.	4f#\	.	.	4A\	-ne-	.	4c\	-ne-	4f#/	-ne-	.	.	.	[
!	!	!	!	!	!	!	!	!LO:LB:g=original	!	!	!	!	!LO:LB:g=original	!	!	!LO:LB:g=original	!	!
=18	=18	=18	=18	=18	=18	=18	=18	=18	=18	=18	=18	=18	=18	=18	=18	=18	=18	=18
2B- 2G\	-dic-	.	.	2dd/	2g\	.	.	2G\	-di-	.	2B-\	-dic-	2g/	-di-	.	2dd\	.	.
4B- 4E-\	-tus	.	.	8ee-/L	8g\L	.	.	4E-\	-ctus	.	4B-\	-tus	8g/L	-ctus	.	8ee-\L	.	.
.	.	.	.	8dd/J	8f#X\J	.	.	.	.	.	.	.	8f#X/J	.	.	8dd\J	.	.
4B- 4E-\	qui	.	.	8ee-/	8g\	-mi-	.	4E-\	qui	.	4B-\	qui	8g/L	qui	.	8ee-\L	-mi-	.
.	.	.	.	8b-/	8e-\	-ne	.	.	.	.	.	.	8e-/J	.	.	8b-\J	-ne	.
=19	=19	=19	=19	=19	=19	=19	=19	=19	=19	=19	=19	=19	=19	=19	=19	=19	=19	=19
*^	*	*	*	*	*	*	*	*	*	*	*	*	*	*	*	*	*	*
8B-/L	(<2F\	ve-	.	.	[>2b-/	8d\L	do-	.	2F\	ve-	.	(>8B-\L	ve-	8d/L	ve-	.	2b-\	Do-	.
!	!	!	!	!	!	!	!	!	!	!	!	!	!	!	!	!LO:HP:b	!	!	!
8c/	.	.	.	.	.	8e-\	.	.	.	.	.	8c\	.	8e-/	.	<	.	.	.
8c#X/	.	.	.	.	.	8en\	.	.	.	.	.	8c#X\)	.	8en/	.	.	.	.	.
8d/J	.	.	.	.	.	8f\J	.	.	.	.	.	8d\J	.	8f/J	.	[	.	.	.
!	!	!	!	!	!	!	!	!	!	!	!	!	!	!LO:TX:a:t=P:problem:kasownik przekreślony w źródle ołówkiem. Dopisany bemol	!	!	!	!	!
8c# 8F\)	2ryy	-nit	.	.	8b-/L]	4e\	.	.	4F\	-nit	.	4cn\	-nit	4en/	-nit	.	(>8b-\L	.	.
8ryy	.	.	.	.	8a/	.	.	.	.	.	.	.	.	.	.	.	8a\	.	.
4c# 4F\	.	in	.	.	8g/J	4e\	.	.	4F\	in	.	4c\	in	4e/	in	.	8g\J)	.	.
.	.	.	.	.	8a/	.	-mi-	.	.	.	.	.	.	.	.	.	8a\	-mi-	.
!LO:LB:g=original	!LO:LB:g=original	!	!	!	!LO:LB:g=original	!LO:LB:g=original	!	!	!	!	!	!	!	!	!	!	!	!	!
=20	=20	=20	=20	=20	=20	=20	=20	=20	=20	=20	=20	=20	=20	=20	=20	=20	=20	=20	=20
(>2e-/	4B-\	no-	.	.	2a 2f/	2ryy	-ni	.	4B-\	no-	.	2e-\	nomi-	2f/	nomi-	.	2a/	-ni	.
.	4F\	-mi-	.	.	.	.	.	.	4F\	-mi-	.	.	.	.	.	.	.	.	.
4d/)	4BB-\	-ne	.	.	4b-/	4f\	.	.	4BB-/	-ne	.	4d\	-ne	4f/	-ne	.	4b-/	.	.
!	!	!	!	!	!	!	!	!	!	!	!	!	!	!	!	!LO:DY:b:t=for:rj	!	!	!
4r	4ryy	.	.	.	8.dd 8.d/	4ryy	Be-	.	4r	.	.	4r	.	8.d/	Be-	f	8.dd\	Be-	.
.	.	.	.	.	16dd 16d/	.	-ne-	.	.	.	.	.	.	16d/	-ne-	.	16dd\	-ne-	.
*v	*v	*	*	*	*	*	*	*	*	*	*	*	*	*	*	*	*	*	*
!	!	!	!	!	!	!	!	!	!	!	!LO:LB:g=original	!	!	!	!	!	!	!
=21	=21	=21	=21	=21	=21	=21	=21	=21	=21	=21	=21	=21	=21	=21	=21	=21	=21	=21
!LO:TX:t=P:problem:2 linijka słów poprzedzona adnotacją "Alto:|"	!	!	!	!	!	!	!	!	!	!	!	!	!	!	!	!	!	!
!LO:TX:b:i:t=alto&colon;/	!	!	!	!	!	!	!	!	!	!	!	!	!	!	!	!	!	!
8r	.	.	.	4dd/	2d\	-dic-	.	8r	.	.	8r	.	2d/	-di-	.	4dd\	-dic-	.
8F#XL 8D\	Be-	dic-	.	.	.	.	.	(>8D\L	Be-	.	8F#X/L	Be-	.	.	.	.	.	.
8GJ 8E-\	.	.	.	8cc#X/	.	-tus	.	8En\J)	.	.	8G/J	.	.	.	.	8cc#X\	-tus	.
8A 8F#\	-ne-	.	.	8ccn/	.	qui	.	8F#X\	-ne-	.	8A/	-ne-	.	.	.	8ccn\	qui	.
4B- 4G\	-dic-	-tus	.	4b-/	4d\	ve-	.	4G\	-di-	.	4B-\	-dic-	4d/	-ctus	.	4b-\	ve-	.
8c 8A\	-tus	qui	.	8a/	4d\	-nit	.	8A\	-ctus	.	8c\	-tus	4d/	qui	.	8a/	-nit	.
8d 8B-\	qui	.	.	8g/	.	in	.	8B-\	qui	.	8d\	qui	.	.	.	8g/	in	.
!	!	!	!	!	!	!	!	!LO:LB:g=original	!	!	!	!	!LO:LB:g=original	!	!	!LO:LB:g=original	!	!
=22	=22	=22	=22	=22	=22	=22	=22	=22	=22	=22	=22	=22	=22	=22	=22	=22	=22	=22
2e- 2A\	ve-	ve-	.	(<4f/	2f\	no-	.	2c 2A\	ve-	.	2e-\	ve-	2f/	ve-	.	(>4f/	no-	.
.	.	.	.	4ff/)	.	.	.	.	.	.	.	.	.	.	.	4ff\)	.	.
4d 4B-\	-nit	-nit	.	(<8gg/L	4f\	.	.	4B-\	-nit	.	4d\	-nit	4f/	-nit	.	8gg\L	.	.
.	.	.	.	8ff/J)	.	.	.	.	.	.	.	.	.	.	.	8ff\J	.	.
4r	.	.	.	8dd/	4ryy	-mi-	.	4r	.	.	4r	.	4r	.	.	8dd\	-mi-	.
.	.	.	.	8b-/	.	-ne	.	.	.	.	.	.	.	.	.	8b-\	-ne	.
=23	=23	=23	=23	=23	=23	=23	=23	=23	=23	=23	=23	=23	=23	=23	=23	=23	=23	=23
8r	.	.	.	4dd/	2d\	Be-	.	8r	.	.	8r	.	2d/	no-	.	4dd\	Be-	.
8F#XL 8D\	Be-	no-	.	.	.	.	.	8D\L	Be-	.	8F#X/L	Be-	.	.	.	.	.	.
8GJ 8E-\	.	.	.	8cc#X/	.	.	.	8En\J	.	.	8G/J	.	.	.	.	8cc#X\	.	.
8A 8F#\	-ne-	.	.	8ccn/	.	-ne-	.	8F#X\	-ne-	.	8A/	-ne-	.	.	.	8ccn\	-ne-	.
4B- 4G\	-dic-	-mi-	.	4b-/	4d\	-dic-	.	4G\	-dic-	.	4B-\	-dic-	4d/	-mi-	.	4b-\	-dic-	.
8c 8A\	-tus	-ne	.	8a/	4d\	-tus	.	8A\	-tus	.	8c\	-tus	4d/	-ne	.	8a/	-tus	.
8d 8B-\	qui	.	.	8g/	.	qui	.	8B-\	qui	.	8d\	qui	.	.	.	8g/	qui	.
!LO:PB:g=original	!	!	!	!LO:PB:g=original	!LO:PB:g=original	!	!	!	!	!	!	!	!	!	!	!	!	!
=24	=24	=24	=24	=24	=24	=24	=24	=24	=24	=24	=24	=24	=24	=24	=24	=24	=24	=24
*^	*	*	*	*	*	*	*	*	*	*	*	*	*	*	*	*	*	*
2e-\ 2A\	2ryy	ve-	.	.	8f/L	4f\	ve-	.	2c 2A\	ve-	.	2e-\	ve-	4f/	do-	.	(<8f/L	ve-	.
.	.	.	.	.	8a/J	.	.	.	.	.	.	.	.	.	.	.	8a/J)	.	.
.	.	.	.	.	8cc/	4f\	-nit	.	.	.	.	.	.	4f/	-mi-	.	8cc\	-nit	.
.	.	.	.	.	8ff/	.	in	.	.	.	.	.	.	.	.	.	8ff\	in	.
4d\ 4B-\	4ryy	-nit	.	.	8.ff/	4f\	no-	.	4B-\	-nit	.	4d\	-nit	4f/	-ni	.	8.ff\	no-	.
.	.	.	.	.	16dd/	.	-mi-	.	.	.	.	.	.	.	.	.	16dd\	-mi-	.
!LO:TX:a:t=P:problem:kreska przez cały system przed nutami	!	!	!	!	!	!	!	!	!	!	!	!	!	!	!	!	!	!	!
8.B-/	4r	Be-	.	.	4b-/	4ryy	-ne	.	4r	.	.	8.B-\	Be-	4r	.	.	4b-\	-ne	.
16B-/	.	-ne-	.	.	.	.	.	.	.	.	.	16B-\	-ne-	.	.	.	.	.	.
*	*	*	*	*	*v	*v	*	*	*	*	*	*	*	*	*	*	*	*	*
!	!	!	!	!	!	!	!	!	!	!	!LO:LB:g=original	!	!LO:PB:g=original	!	!	!LO:PB:g=original	!	!
=25	=25	=25	=25	=25	=25	=25	=25	=25	=25	=25	=25	=25	=25	=25	=25	=25	=25	=25
!LO:TX:a:t=P:problem:znak początku repetycji	!	!	!	!	!LO:TX:a:t=P:problem:znak początku repetycji	!	!	!	!	!	!	!	!	!	!	!	!	!
2B-/	4r	-dic-	.	.	4r	.	.	4r	.	.	2B-\	-di-	4r	.	.	4r	.	.
!	!LO:N:vis=8	!	!	!	!	!	!	!	!	!	!	!	!	!	!	!	!	!
.	8.D\	.	.	.	8.a-X 8.f/	Be-	.	8.D\	Be-	.	.	.	8.f/	Be-	.	8.a-X/	Be-	.
.	.	.	.	.	.	.	.	.	.	.	.	.	.	.	.	.	.	.
.	16D\	.	.	.	16a- 16f/	-ne-	.	16D\	-ne-	.	.	.	16f/	-ne-	.	16a-/	-ne-	.
8B-/	4D\	-tus	.	.	4a- 4f/	-dic-	.	(>4D^>\	-di-	.	8B-\	-ctus	4f^>/	-dic-	.	4a-/	-dic-	.
8r	.	.	.	.	.	.	.	.	.	.	8r	.	.	.	.	.	.	.
8.c/	8E-\	Be-	.	.	8g 8e-/	-tus	.	8E-\)	-ctus	.	8.c\	Be-	8e-/	-tus	.	8g/	-tus	.
.	8rD	.	.	.	8r	.	.	8r	.	.	.	.	8r	.	.	8r	.	.
16c/	.	-ne-	.	.	.	.	.	.	.	.	16c\	-ne-	.	.	.	.	.	.
!	!	!	!	!	!	!	!	!LO:LB:g=original	!	!	!	!	!	!	!	!	!	!
=26	=26	=26	=26	=26	=26	=26	=26	=26	=26	=26	=26	=26	=26	=26	=26	=26	=26	=26
2c/	4r	-dic-	.	.	4r	.	.	4r	.	.	2c\	-di-	4r	.	.	4r	.	.
.	8.En\	.	.	.	8.b- 8.g/	Be-	.	8.En\	Be-	.	.	.	8.g/	Be-	.	8.b-/	Be-	.
.	16E\	.	.	.	16b- 16g/	-ne-	.	16E\	-ne-	.	.	.	16g/	-ne-	.	16b-/	-ne-	.
!	!	!	!	!	!	!	!	!	!	!	!	!	!LO:TX:a:t=P:diminuendolike accent:problem	!	!	!	!	!
8c/	4E\	-tus	.	.	4b- 4g/	-dic-	.	(>4E^>\	-di-	.	8c\	-ctus	4g^>/	-dic-	.	4b-/	-dic-	.
8r	.	.	.	.	.	.	.	.	.	.	8r	.	.	.	.	.	.	.
!LO:N:vis=8	!	!	!	!	!	!	!	!	!	!	!	!	!	!	!	!	!	!
8.f/	8F\	Be-	.	.	8a 8f/	-tus	.	8F\)	-ctus	.	8.f\	Be-	8f/	-tus	.	8a/	-tus	.
.	8rD	.	.	.	8r	.	.	8r	.	.	.	.	8r	.	.	8r	.	.
16f/	.	-ne-	.	.	.	.	.	.	.	.	16f\	-ne-	.	.	.	.	.	.
=27	=27	=27	=27	=27	=27	=27	=27	=27	=27	=27	=27	=27	=27	=27	=27	=27	=27	=27
*	*	*	*	*	*^	*	*	*	*	*	*	*	*	*	*	*	*	*
*	*	*	*	*	*	*	*above	*	*	*	*	*	*	*	*	*	*	*	*
!	!	!	!	!	!	!	!	!	!	!	!LO:DY:b	!	!	!	!	!	!	!	!
4f/	4r	-di-	.	.	4r	2ryy	.	.	4r	.	p	(>4f\	-di-	4r	.	.	4r	.	.
!LO:N:vis=4	!LO:N:vis=8	!	!	!	!LO:TX:t=P:problem:słowa w tym takcie zapisane nad systemem	!	!	!	!	!	!	!	!	!	!	!	!	!	!
8.e-/	8.A\	.	.	.	8.cc 8.f/	.	Be-	.	8.A\	Be-	.	4e-\)	.	8.f/	Be-	.	8.cc\	Be-	.
.	.	.	.	.	.	.	.	.	.	.	.	.	.	.	.	.	.	.	.
!LO:TX:a:t=P:problem:nuta przekreślona	!	!	!	!	!	!	!	!	!	!	!	!	!	!	!	!	!	!	!
!LO:N:vis=4	!	!	!	!	!	!	!	!	!	!	!	!	!	!	!	!	!	!	!
16d	16A\	.	.	.	16cc 16f/	.	-ne-	.	16A\	-ne-	.	.	.	16f/	-ne-	.	16cc\	-ne-	.
!	!	!	!	!	!	!	!	!	!	!	!	!	!	!	!	!LO:DY:a	!	!	!
4d/	4B-\	-ctus	.	.	4dd/	8f\L	-dic-	.	4B-\	-di-	.	4d\	-ctus	8f/L	-dic-	<	4dd\	-dic-	.
.	.	.	.	.	.	8f#X\J	.	.	.	.	.	.	.	8f#X/J	.	.	.	.	.
8c/L	8E-\	qui	.	.	8ee-/	8g\	-tus	.	8E-\	-ctus	.	8c\L	qui	8g/	-tus	.	8ee-\	-tus	.
!LO:TX:a:t=P:problem:niejasny zapis wysokości nuty	!	!	!	!	!	!	!	!	!	!	!	!	!	!	!	!	!	!	!
8e-/J	8E-\	.	.	.	8cc/	8e-\	qui	.	8E-\	qui	.	8e-\J	.	8e-/	qui	[[	8cc\	qui	.
*	*	*	*	*	*	*	*below	*	*	*	*	*	*	*	*	*	*	*	*
*	*	*	*	*	*v	*v	*	*	*	*	*	*	*	*	*	*	*	*	*
!LO:LB:g=original	!LO:LB:g=original	!	!	!	!LO:LB:g=original	!	!	!	!	!	!	!	!LO:LB:g=original	!	!	!LO:LB:g=original	!	!
=28	=28	=28	=28	=28	=28	=28	=28	=28	=28	=28	=28	=28	=28	=28	=28	=28	=28	=28
!LO:TX:a:t=P:problem:wolta 1.	!	!	!	!	!LO:TX:a:t=P:problem:wolta 1.	!	!	!	!	!	!	!	!	!	!	!	!	!
4d/	2F\	ve-	.	.	4b- 4f/	.	.	2F\	ve-	.	(>4d\	ve-	4f^>/	ve-	.	4b-\	ve-	.
!	!	!	!	!	!LO:TX:t=1mo	!	!	!	!	!	!	!	!	!	!	!	!	!
4c/	.	.	.	.	4a 4e-/	.	.	.	.	.	4c\)	.	4e-/	.	.	4a\	.	.
8B-/	8BB-\	-nit	.	.	4b- 4d/	.	.	8BB-/	-nit	.	4B-\	-nit	4d/	-nit	.	4b-\	-nit	.
8rB	8rBB	.	.	.	.	.	.	8r	.	.	.	.	.	.	.	.	.	.
8.B-/	4rBB	Be-	.	.	4ryy	.	.	4r	.	.	8.B-\	Be-	4r	.	.	4r	.	.
!LO:TX:t=P:problem:kreska kończąca repetycję	!	!	!	!	!LO:TX:t=P:problem:kreska kończąca repetycję	!	!	!	!	!	!	!	!	!	!	!	!	!
16B-/	.	-ne	.	.	.	.	.	.	.	.	16B-\	-ne-	.	.	.	.	.	.
!	!	!	!	!	!	!	!	!	!	!	!LO:LB:g=original	!	!	!	!	!	!	!
=29	=29	=29	=29	=29	=29	=29	=29	=29	=29	=29	=29	=29	=29	=29	=29	=29	=29	=29
!LO:TX:a:t=P:problem:takty 29-31 zapisane repetycją	!LO:TX:a:t=P:problem:takty 29-31 zapisane repetycją	!	!	!	!LO:TX:a:t=P:problem:takty 29-31 zapisane repetycją	!	!	!	!	!	!	!	!	!	!	!	!	!
2B-/yy	4ryy	-di-	.	.	4ryy	.	.	4r	.	.	2B-\	-di-	4r	.	.	4r	.	.
!	!LO:N:vis=8	!	!	!	!	!	!	!	!	!	!	!	!	!	!	!	!	!
.	8.D\yy	.	.	.	8.a-Xyy 8.f/yy	Be-	.	8.D\	Be-	.	.	.	8.f/	Be-	.	8.a-X/	Be-	.
.	.	.	.	.	.	.	.	.	.	.	.	.	.	.	.	.	.	.
.	16D\yy	.	.	.	16a-yy 16f/yy	-ne-	.	16D\	-ne-	.	.	.	16f/	-ne-	.	16a-/	-ne-	.
8B-/yy	4D\yy	-ctus	.	.	4a-yy 4f/yy	-dic-	.	(>4D^>\	-dic-	.	8B-\	-ctus	4f^>/	-dic-	.	4a-/	-dic-	.
8ryy	.	.	.	.	.	.	.	.	.	.	8r	.	.	.	.	.	.	.
8.c/yy	8E-\yy	Be-	.	.	8gyy 8e-/yy	-tus	.	8E-\)	-tus	.	8.c\	Be-	8e-/	-tus	.	8g/	-tus	.
.	8rDyy	.	.	.	8ryy	.	.	8r	.	.	.	.	8r	.	.	8r	.	.
16c/yy	.	-ne-	.	.	.	.	.	.	.	.	16c\	-ne-	.	.	.	.	.	.
!	!	!	!	!	!	!	!	!LO:LB:g=original	!	!	!	!	!	!	!	!	!	!
=30	=30	=30	=30	=30	=30	=30	=30	=30	=30	=30	=30	=30	=30	=30	=30	=30	=30	=30
2c/yy	4ryy	-dic-	.	.	4ryy	.	.	4r	.	.	2c\	-di-	4r	.	.	4r	.	.
.	8.En\yy	.	.	.	8.b-yy 8.g/yy	Be-	.	8.En\	Be-	.	.	.	8.g/	Be-	.	8.b-/	Be-	.
.	16E\yy	.	.	.	16b-yy 16g/yy	-ne-	.	16E\	-ne-	.	.	.	16g/	-ne-	.	16b-/	-ne-	.
8c/yy	4E\yy	-tus	.	.	4b-yy 4g/yy	-dic-	.	(>4E^>\	-dic-	.	8c\	-ctus	4g^>/	-dic-	.	4b-/	-dic-	.
8ryy	.	.	.	.	.	.	.	.	.	.	8r	.	.	.	.	.	.	.
!LO:N:vis=8	!	!	!	!	!	!	!	!	!	!	!	!	!	!	!	!	!	!
8.f/yy	8F\yy	Be-	.	.	8ayy 8f/yy	-tus	.	8F\)	-tus	.	8.f\	Be-	8f/	-tus	.	8a/	-tus	.
.	8rDyy	.	.	.	8ryy	.	.	8r	.	.	.	.	8r	.	.	8r	.	.
16f/yy	.	-ne-	.	.	.	.	.	.	.	.	16f\	-ne-	.	.	.	.	.	.
=31	=31	=31	=31	=31	=31	=31	=31	=31	=31	=31	=31	=31	=31	=31	=31	=31	=31	=31
*	*	*	*	*	*^	*	*	*	*	*	*	*	*	*	*	*	*	*
*	*	*	*	*	*	*	*above	*	*	*	*	*	*	*	*	*	*	*	*
4f/yy	4ryy	-di-	.	.	4ryy	2ryy	.	.	4r	.	.	4f\	-di-	4r	.	.	4r	.	.
!LO:N:vis=4	!LO:N:vis=8	!	!	!	!LO:TX:t=P:problem:słowa w tym takcie zapisane nad systemem	!	!	!	!	!	!	!	!	!	!	!LO:DY:a	!	!	!
8.e-/yy	8.A\yy	.	.	.	8.ccyy 8.f/yy	.	Be-	.	8.A\	Be-	.	4e-\	.	8.f/	Be-	<	8.cc\	Be-	.
.	.	.	.	.	.	.	.	.	.	.	.	.	.	.	.	.	.	.	.
!LO:TX:a:t=P:problem:nuta przekreślona	!	!	!	!	!	!	!	!	!	!	!	!	!	!	!	!	!	!	!
!LO:N:vis=4	!	!	!	!	!	!	!	!	!	!	!	!	!	!	!	!	!	!	!
16dyy	16A\yy	.	.	.	16ccyy 16f/yy	.	-ne-	.	16A\	-ne-	.	.	.	16f/	-ne-	.	16cc\	-ne-	.
4d/yy	4B-\yy	-ctus	.	.	4dd/yy	8f\Lyy	-dic-	.	4B-\	-dic-	.	4d\	-ctus	8f/L	-dic-	.	4dd\	-dic-	.
.	.	.	.	.	.	8f#X\yy	.	.	.	.	.	.	.	8f#X/J	.	.	.	.	.
8c/Lyy	8E-\yy	qui	.	.	8ee-/yy	8g\yy	-tus	.	8E-\	-tus	.	8c\L	qui	8g/	-tus	.	8ee-\	-tus	.
!LO:TX:a:t=P:problem:niejasny zapis wysokości nuty	!	!	!	!	!	!	!	!	!	!	!	!	!	!	!	!	!	!	!
8e-/Jyy	8E-\yy	.	.	.	8cc/yy	8e-\yy	qui	.	8E-\	qui	.	8e-\J	.	8e-/	qui	[[	8cc\	qui	.
*	*	*	*	*	*	*	*below	*	*	*	*	*	*	*	*	*	*	*	*
!	!	!	!	!	!	!	!	!	!	!	!	!	!	!LO:LB:g=original	!	!	!LO:LB:g=original	!	!
=32	=32	=32	=32	=32	=32	=32	=32	=32	=32	=32	=32	=32	=32	=32	=32	=32	=32	=32	=32
!LO:TX:a:t=P:problem:wolta 2.	!	!	!	!	!LO:TX:a:t=P:problem:wolta 2.	!	!	!	!	!	!	!	!	!	!	!LO:DY:b:rj	!	!	!
2d/	1F	ve-	.	.	2b-/	2f\	.	.	1F	ve-	.	2d\	ve-	2f/	ve-	p	2b-\	ve-	.
!	!	!	!	!	!LO:TX:a:t=2do	!	!	!	!	!	!	!	!	!	!	!	!	!	!
.	.	.	.	.	.	.	.	.	.	.	.	.	.	.	.	.	.	.	.
2c/	.	.	.	.	2a/ 2e-/	2ryy	.	.	.	.	.	2c\	.	2e-/	.	.	2a\	.	.
*	*	*	*	*	*v	*v	*	*	*	*	*	*	*	*	*	*	*	*	*
!	!	!	!	!	!	!	!	!	!	!	!LO:LB:g=original	!	!	!	!	!	!	!
=33	=33	=33	=33	=33	=33	=33	=33	=33	=33	=33	=33	=33	=33	=33	=33	=33	=33	=33
4B-/	4B-\	-nit	.	.	4b- 4d/	.	.	4BB-/	-nit	.	4B-\	-nit	4d/	-nit	.	4b-\	-nit	.
!	!	!	!	!	!	!	!	!	!	!	!	!	!LO:TX:i:t=legato	!	!	!	!	!
2F/	4BB-\	Be-	.	.	4d 4B-/	.	.	4BB-/	Be-	.	2F/	Be-	4B-/	Be-	.	(<4d/	Be-	.
.	4C\	.	.	.	4e- 4A/	.	.	4C/	.	.	.	.	4A/	.	.	4e-/)	.	.
4B-/	4D\	ne-	.	.	4f 4B-/	.	.	4D/	-ne-	.	4B-\	-ne-	4B-/	-ne-	.	4f/	-ne-	.
*v	*v	*	*	*	*	*	*	*	*	*	*	*	*	*	*	*	*	*
!	!	!	!	!	!	!	!LO:LB:g=original	!	!	!	!	!	!	!	!	!	!
=34	=34	=34	=34	=34	=34	=34	=34	=34	=34	=34	=34	=34	=34	=34	=34	=34	=34
4c 4E-\	-dict-	.	.	4g 4B-/	.	.	(>4E-\	-di-	.	4B-\	-di-	4B-/	-di-	.	(<4g/	-dic-	.
4c 4F\	.	.	.	4a 4e-/	.	.	4F\)	-ctus	.	4c\	.	4e-/	.	.	4a/)	-tus	.
4c 4G\	-ctus	.	.	4b- 4e-/	.	.	4G\	.	.	4c\	-ctus	4e-/	-ctus	.	4b-\	qui	.
4e- 4A\	qui	.	.	4cc 4f/	.	.	4A\	qui	.	4e-\	qui	4f/	qui	.	4cc\	.	.
=35	=35	=35	=35	=35	=35	=35	=35	=35	=35	=35	=35	=35	=35	=35	=35	=35	=35
*^	*	*	*	*^	*	*	*	*	*	*	*	*	*	*	*	*	*
4d\ 4B-\	4ryy	ve	.	.	4dd/	2f\	.	.	4B-\	ve-	.	(>4d\	ve-	2f/	ve-	.	(>4dd\	ve-	.
2B-/	4D\	.	.	.	4b-/	.	.	.	4D\	.	.	4B-\)	.	.	.	.	4b-\)	.	.
.	4E-\	nit	.	.	4g/	4g\	.	.	4E-\	-nit	.	4B-\	-nit	4g/	-nit	.	4g/	-nit	.
4ryy	4G\	in	.	.	4e-/	4e-\	.	.	4G\	in	.	4G\	in	4e-/	in	.	4e-/	in	.
=36	=36	=36	=36	=36	=36	=36	=36	=36	=36	=36	=36	=36	=36	=36	=36	=36	=36	=36	=36
4.B-/	4F\	no-	.	.	2d/	2d\	.	.	4.F\	no-	.	4.B-\	no-	4.d/	no-	.	2d/	no-	.
.	8ryy	.	.	.	.	.	.	.	.	.	.	.	.	.	.	.	.	.	.
8B-/	8F\	-mi-	.	.	.	.	.	.	8F\	-mi-	.	8B-\	-mi-	8d/	-mi-	.	.	.	.
4A/	4F\	-ne	.	.	4c/	4c\	.	.	4F\	-ne	.	4A\	-ne	4c/	-ne	.	4c/	-mine	.
8F/L	4r	O-	.	.	4rb	4r	.	.	4r	.	.	8F/L	O-	4r	.	.	4r	.	.
8A/J	.	.	.	.	.	.	.	.	.	.	.	8A/J	.	.	.	.	.	.	.
*	*	*	*	*	*v	*v	*	*	*	*	*	*	*	*	*	*	*	*	*
!LO:LB:g=original	!LO:LB:g=original	!	!	!	!LO:LB:g=original	!	!	!	!	!	!	!	!LO:LB:g=original	!	!	!LO:LB:g=original	!	!
=37	=37	=37	=37	=37	=37	=37	=37	=37	=37	=37	=37	=37	=37	=37	=37	=37	=37	=37
!	!	!	!	!	!LO:TX:a:i:t=Piu Mosſo	!	!	!LO:TX:a:i:t=Piu Mosſo	!	!LO:DY:b	!	!	!LO:TX:i:t=piu Mosſo	!	!	!LO:TX:a:i:t=piu mosſo	!	!LO:DY:b
2c/	4r	-San-	.	.	4r	.	.	4r	.	f	2c\	-San-	4r	.	.	4r	.	f
.	4E-\	.	.	.	4b- 4g/	o-	.	4En\	O-	.	.	.	4g/	O-	.	4b-\	o-	.
4c/	4E-\	-na	.	.	4b- 4g/	-san-	.	4E\	-san-	.	4c\	-na	4g/	-san-	.	4b-\	-san-	.
8qqe-/	.	.	.	.	.	.	.	.	.	.	8qqe-/	.	.	.	.	.	.	.
8d/	8E-\	in	.	.	8b- 8g/	-na	.	8E\	-na	.	8d\	in	8g/	-na	.	8b-\	-na	.
8c/	8E-\	ex-	.	.	8b- 8g/	O-	.	8E\	o-	.	8c\	ex-	8g/	o-	.	8b-\	o-	.
!	!	!	!	!	!	!	!	!LO:LB:g=original	!	!	!LO:LB:g=original	!	!	!	!	!	!	!
=38	=38	=38	=38	=38	=38	=38	=38	=38	=38	=38	=38	=38	=38	=38	=38	=38	=38	=38
4c/	2F\	-cel-	.	.	2a 2f/	-san-	.	2F\	-san-	.	(>4c\	-cel-	2f/	-san-	.	2a/	-san-	.
4f/	.	.	.	.	.	.	.	.	.	.	4f\)	.	.	.	.	.	.	.
8c/	8F\	-sis	.	.	8a 8f/	-na	.	8F\	-na	.	8c\	-sis	8f/	-na	.	8a/	-na	.
8rB	8rBB	.	.	.	8r	.	.	8r	.	.	8r	.	8r	.	.	8r	.	.
4rB	4rBB	.	.	.	8f/L	O-	.	4r	.	.	4r	.	4r	.	.	(8f/L	O-	.
.	.	.	.	.	8a/J	.	.	.	.	.	.	.	.	.	.	8a/J)	.	.
*v	*v	*	*	*	*	*	*	*	*	*	*	*	*	*	*	*	*	*
=39	=39	=39	=39	=39	=39	=39	=39	=39	=39	=39	=39	=39	=39	=39	=39	=39	=39
*	*	*	*	*^	*	*	*	*	*	*	*	*	*	*	*	*	*
4r	.	.	.	2cc/	4r	-san-	.	4r	.	.	4r	.	4r	.	.	2cc\	-san-	.
4B- 4E-\	O-	.	.	.	4g\	.	.	4En\	o-	.	4B-\	O-	4g/	o-	.	.	.	.
4B- 4E-\	-san-	.	.	4cc/	4g\	-na	.	4E\	-san-	.	4B-\	-san-	4g/	-san-	.	4cc\	-na	.
.	.	.	.	8qqee-/	.	.	.	.	.	.	.	.	.	.	.	8qqee-/	.	.
8B- 8E-\	-na	.	.	8dd/	8g\	in	.	8E\	-na	.	8B-\	-na	8g/	-na	.	8dd\	in	.
8B- 8E-\	o-	.	.	8cc/	8g\	ex-	.	8E\	o-	.	8B-\	o-	8g/	o-	.	8cc\	ex-	.
=40	=40	=40	=40	=40	=40	=40	=40	=40	=40	=40	=40	=40	=40	=40	=40	=40	=40	=40
2A 2F\	-san-	.	.	4cc/	2f\	-cel-	.	2F\	-san-	.	2A\	-san-	2f/	-san-	.	4cc\	-cel-	.
!	!	!	!	!LO:TX:a:t=P:problem:kreska pod nutą	!	!	!	!	!	!	!	!	!	!	!	!	!	!
.	.	.	.	4ff/	.	.	.	.	.	.	.	.	.	.	.	4ff\	.	.
4A 4F\	-na	.	.	4cc/	4f\	-sis	.	4F\	-na	.	4A\	-na	4f/	-na	.	4cc\	-sis	.
!LO:N:vis=8	!	!	!	!LO:N:n=2:vis=8	!	!	!	!	!	!LO:HP:b:t=Cres	!	!	!	!	!	!	!	!
8.e-X 8.A\	Be-	.	.	8.cc 8.f/	4ryy	.	.	8.A\	Be-	<	8.e-\	Be-	8.f/	Be-	.	8.cc\	Be-	.
.	.	.	.	.	.	.	.	.	.	.	.	.	.	.	.	.	.	.
16e- 16A\	-ne-	.	.	16cc#X 16f/	.	.	.	16A\	-ne-	.	16e-\	-ne-	16f/	-ne-	.	16cc#X\	-ne-	.
*	*	*	*	*v	*v	*	*	*	*	*	*	*	*	*	*	*	*	*
!	!	!	!	!	!	!	!	!	!	!	!	!LO:LB:g=original	!	!	!LO:LB:g=original	!	!
=41	=41	=41	=41	=41	=41	=41	=41	=41	=41	=41	=41	=41	=41	=41	=41	=41	=41
!	!	!	!	!	!	!LO:HP:b	!	!	!	!	!	!	!	!	!	!	!
4d 4B-\	-dic-	.	.	4dd 4f/	.	<	4B-\	-di-	.	4d\	-dic-	4f/	-dic-	.	4dd\	-dic-	.
2d 2B-\	-tus	.	.	2dd 2f/	.	.	2B-\	-ctus	.	2d\	-tus	2f/	-tus	.	2dd^>\	-tus	.
.	.	.	.	.	.	[	.	.	.	.	.	.	.	.	.	.	.
!LO:N:vis=8	!	!	!	!	!	!	!	!	!	!	!	!	!	!	!	!	!
8.c 8.F#X\	Be-	.	.	8a 8d/	.	.	8.F#X\	Be-	.	8.c\	Be-	8.d/	Be-	.	8.a/	Be-	.
.	.	.	.	16ryy	.	.	.	.	.	.	.	.	.	.	.	.	.
16c 16F#\	-ne-	.	.	16a 16d/	.	.	16F#\	-ne-	.	16c\	-ne-	16d/	-ne-	.	16a/	-ne-	.
!LO:LB:g=original	!	!	!	!LO:LB:g=original	!	!	!LO:PB:g=original	!	!	!LO:LB:g=original	!	!	!	!	!	!	!
=42	=42	=42	=42	=42	=42	=42	=42	=42	=42	=42	=42	=42	=42	=42	=42	=42	=42
!	!	!	!	!	!	!LO:HP:b	!	!	!	!	!	!	!	!	!	!	!
4B- 4G\	-dic-	.	.	4b- 4d/	.	<	4G\	-di-	.	4B-\	-di-	4d/	-dic-	.	4b-/	-dic-	.
2B- 2G\	-tus	.	.	2b- 2d/	.	[	2G^>\	-ctus	.	2B-\	-ctus	2d/	-tus	.	2b-^>/	-tus	.
!	!	!	!	!LO:N:vis=8	!	!	!	!	!	!	!	!	!	!	!	!	!
8.A 8.D\	Be-	.	.	8.f#X 8.c/	.	.	8.D\	Be-	.	8.A\	Be-	8.c/	Be-	.	8.f#X/	Be-	.
.	.	.	.	.	.	.	.	.	.	.	.	.	.	.	.	.	.
16A 16D\	-ne-	.	.	16f# 16c/	.	.	16D\	-ne-	.	16A\	-ne-	16c/	-ne-	.	16f#/	-ne-	.
=43	=43	=43	=43	=43	=43	=43	=43	=43	=43	=43	=43	=43	=43	=43	=43	=43	=43
!	!	!	!	!	!	!LO:HP:b	!	!	!	!	!	!	!	!	!	!	!
4G 4E-\	-di-	.	.	4g 4B-/	.	<	2E-\	-di-	.	4G\	-di-	4B-/	-di-	.	(>4g/	-di-	.
4e-X 4E-\	.	.	.	4cc\ 4g\	.	.	.	.	.	4e-\	.	4g/	.	.	4cc\)	.	.
.	.	.	.	.	.	[	.	.	.	.	.	.	.	.	.	.	.
4d 4F\	-ctus	.	.	4b-\ 4f\	.	.	4F\	-ctus	.	4d\	-ctus	4f/	-ctus	.	4b-\	-ctus	.
4e- 4F\	qui	.	.	4cc\ 4a\	.	.	4F\	qui	.	4e-\	qui	4a/	qui	.	4cc\	qui	.
=44	=44	=44	=44	=44	=44	=44	=44	=44	=44	=44	=44	=44	=44	=44	=44	=44	=44
*	*	*	*	*^	*	*	*	*	*	*	*	*	*	*	*	*	*
*^	*	*	*	*	*	*	*	*	*	*	*	*	*	*	*	*	*	*
1e-X	2B-\	ve-	.	.	2cc#X\ 2a\	2ryy	.	.	2B-\	ve-	.	2e-\	ve-	2a\	ve-	.	2cc#X\	ve-	.
.	4d 4B-\	-nit	.	.	8dd/L	8b-\	.	.	4B-\	-nit	.	4d\	-nit	8b-\	-nit	.	8dd\L	-nit	.
.	.	.	.	.	8ccn/J	8re	.	.	.	.	.	.	.	8r	.	.	8ccn\J	.	.
!	!	!	!	!	!LO:N:n=2:vis=8	!	!	!	!	!	!	!	!	!	!	!	!	!	!
.	8.c 8.D\	Be-	.	.	8.b- 8.f#X/	4ryy	.	.	8.D\	Be-	.	8.c\	Be-	8.f#X/	Be-	.	8.b-X\	Be-	.
.	16c 16D\	-ne-	.	.	16a 16f#/	.	.	.	16D\	-ne-	.	16c\	-ne-	16f#/	-ne-	.	16a\	-ne-	.
*v	*v	*	*	*	*	*	*	*	*	*	*	*	*	*	*	*	*	*	*
!	!	!	!	!	!	!	!	!	!	!	!	!	!LO:LB:g=original	!	!	!LO:LB:g=original	!	!
=45	=45	=45	=45	=45	=45	=45	=45	=45	=45	=45	=45	=45	=45	=45	=45	=45	=45	=45
!	!	!	!	!	!	!	!LO:HP:b	!	!	!	!	!	!	!	!	!	!	!
4B- 4G\	-dic-	.	.	4b- 4g/	4ryy	.	<	4G\	-di-	.	4B-\	-dic-	4g/	-dic-	.	[>4b-\	-dic-	.
2B- 2G\	-tus	.	.	[>4b-/	2d\	.	[	2G^>\	-ctus	.	2B-\	-tus	2d/	-tus	.	4b-^>\_>	-tus	.
.	.	.	.	8b-/L]	.	.	.	.	.	.	.	.	.	.	.	8b-\L]	.	.
.	.	.	.	8a/J	.	.	.	.	.	.	.	.	.	.	.	8a\J	.	.
!	!	!	!	!LO:N:vis=8	!	!	!	!	!	!	!	!	!LO:N:vis=8	!	!	!	!	!
8.A 8.D\	Be-	.	.	8.g 8.c/	4ryy	.	.	8.D\	Be-	.	8.A\	Be-	8.c/	Be-	.	8.g/	Be-	.
.	.	.	.	.	.	.	.	.	.	.	.	.	.	.	.	.	.	.
16A 16D\	-ne-	.	.	16f#X 16c/	.	.	.	16D\	-ne-	.	16A\	-ne-	16c/	-ne-	.	16f#X/	-ne-	.
!	!	!	!	!	!	!	!	!LO:LB:g=original	!	!	!LO:LB:g=original	!	!	!	!	!	!	!
=46	=46	=46	=46	=46	=46	=46	=46	=46	=46	=46	=46	=46	=46	=46	=46	=46	=46	=46
*^	*	*	*	*	*	*	*	*	*	*	*	*	*	*	*	*	*	*
!	!	!	!	!	!	!	!	!LO:HP:b	!	!	!	!	!	!	!	!	!	!	!
4G\ 4E-\	2ryy	-di-	.	.	4g 4B-/	2ryy	.	<	4E-X\	-di-	.	4G/	-dic-	4B-/	-dic-	.	4g/	-dic-	.
2G\ 2E-\	.	-ctus	.	.	2g 2B-/	.	.	.	2E-^>\	-ctus	.	2G/	-tus	2B-/	-tus	.	2g/	-tus	.
.	4ryy	.	.	.	.	4ryy	.	[	.	.	.	.	.	.	.	.	.	.	.
!LO:LB:g=original	!LO:LB:g=original	!	!	!	!LO:LB:g=original	!LO:LB:g=original	!	!	!	!	!	!	!	!	!	!	!	!	!
8c/L	4E-\	qui	.	.	8dd/L	4g\	.	.	4E-\	qui	.	8c\L	qui	4g/	qui	.	(>8dd\L	qui	.
8e-/J	.	.	.	.	8cc/J	.	.	.	.	.	.	8e-\J	.	.	.	.	8cc\J)	.	.
*v	*v	*	*	*	*	*	*	*	*	*	*	*	*	*	*	*	*	*	*
*	*	*	*	*v	*v	*	*	*	*	*	*	*	*	*	*	*	*	*
=47	=47	=47	=47	=47	=47	=47	=47	=47	=47	=47	=47	=47	=47	=47	=47	=47	=47
4d 4F\	ve-	.	.	4b- 4f/	.	.	4F\	ve-	.	4d\	ve-	4f/	ve-	.	4b-\	ve-	.
8d 8F\	-nit	.	.	8b- 8f/	.	.	8F\	-nit	.	8d\	-nit	8f/	-nit	.	8.b-\	-nit	.
8d 8F\	in	.	.	8b- 8f/	.	.	8F\	in	.	8d\	in	8f/	in	.	.	.	.
.	.	.	.	.	.	.	.	.	.	.	.	.	.	.	16b-\	in	.
!	!	!	!	!LO:N:n=2:vis=4	!	!	!	!	!	!	!	!	!	!	!	!	!
4c 4F\	no-	.	.	4.a 4.e-/	.	.	4F\	no-	.	4.c\	no-	4.e-/	no-	.	4.a\	no-	.
4c 4F\	-mi-	.	.	.	.	.	4F\	-mi-	.	.	.	.	.	.	.	.	.
.	.	.	.	8a 8e-/	.	.	.	.	.	8c\	-mi-	8e-/	-mi-	.	8a\	-mi-	.
=48	=48	=48	=48	=48	=48	=48	=48	=48	=48	=48	=48	=48	=48	=48	=48	=48	=48
!	!	!	!	!LO:TX:a:i:t=Imo Tempo	!	!	!	!	!	!	!	!LO:TX:i:t=tempo imo	!	!LO:DY:b:rj	!	!	!
4B-\	-ne	.	.	4b- 4d/	.	.	4B-\	-ne	.	4d\	-ne	4d/	-ne	p	4b-\	-ne	.
!	!	!	!	!	!	!	!LO:TX:a:i:t=Lento	!	!	!	!	!	!	!	!	!	!
.	.	.	.	.	.	.	.	.	.	.	.	.	.	.	.	.	.
4F 4BB-\	Ho-	.	.	4d 4B-/	.	.	4BB-/	o-	.	4F/	O-	4B-/	o-	.	4d/	Ho-	.
4F 4C\	-san-	.	.	4e- 4A/	.	.	4C/	-san-	.	4F/	-san-	4A/	-san-	.	4e-/	-san-	.
4B- 4D\	-na	.	.	4f 4B-/	.	.	4D/	-na	.	4B-\	-na	4B-/	-na	.	4f/	-na	.
!	!	!	!	!	!	!	!	!	!	!	!	!	!	!	!LO:LB:g=original	!	!
=49	=49	=49	=49	=49	=49	=49	=49	=49	=49	=49	=49	=49	=49	=49	=49	=49	=49
4B- 4E-\	in	.	.	4g 4B-/	.	.	4E-\	in	.	4B-\	in	4B-/	in	.	4g/	in	.
4c 4F\	ex-	.	.	4a 4e-/	.	.	4F\	ex-	.	4c\	ex-	4e-/	ex-	.	4a/	ex-	.
!	!	!	!	!	!	!	!	!	!	!	!	!LO:LB:g=original	!	!	!	!	!
4c 4G\	-cel-	.	.	4b- 4e-/	.	.	4G\	-cel-	.	4c\	-cel-	4e-/	-cel-	.	4b-\	-cel-	.
4e- 4A\	-sis	.	.	4cc 4f/	.	.	4A\	-sis	.	4e-\	-sis	4f/	-sis	.	4cc\	-sis	.
!	!	!	!	!	!	!	!LO:LB:g=original	!	!	!LO:PB:g=original	!	!	!	!	!	!	!
=50	=50	=50	=50	=50	=50	=50	=50	=50	=50	=50	=50	=50	=50	=50	=50	=50	=50
*	*	*	*	*^	*	*	*	*	*	*	*	*	*	*	*	*	*
4d 4B-\	Ho-	.	.	4dd/	2f\	.	.	4B-\	O-	.	4d\	O-	2f/	O-	.	(>4dd\	Ho-	.
4B- 4D\	-san-	.	.	4b-/	.	.	.	4D\	.	.	4B-\	.	.	.	.	4b-\)	.	.
4B- 4E-\	.	.	.	4g/	4g\	.	.	4E-\	-san-	.	4B-\	-san-	4g/	-san-	.	4g/	-san-	.
8G\	-na	.	.	8e-/	8e-\	.	.	8G\	-na	.	8G/	-na	8e-/	-na	.	8e-/	-na	.
8G\	O-	.	.	8e-/	8e-\	.	.	8G\	o-	.	8G/	o-	8e-/	O-	.	8e-/	O-	.
!LO:LB:g=original	!	!	!	!LO:LB:g=original	!LO:LB:g=original	!	!	!	!	!	!	!	!	!	!	!	!	!
=51	=51	=51	=51	=51	=51	=51	=51	=51	=51	=51	=51	=51	=51	=51	=51	=51	=51	=51
4B- 4F\	-Sa-	.	.	8d/L	4.d\	.	.	4.F\	-san-	.	4.B-\	-san-	4.d/	-san-	.	(<8d/L	-san-	.
.	.	.	.	8b-/	.	.	.	.	.	.	.	.	.	.	.	8b-/	.	.
8ryy	.	.	.	8a/J	.	.	.	.	.	.	.	.	.	.	.	8a/J)	.	.
8B- 8F\	-na	.	.	8g/	8d\	.	.	8F\	-na	.	8B-\	-na	8d/	-na	.	8g/	-na	.
4.A 4.F\	in	.	.	8f/L	4.c\	.	.	4.F\	in	.	4.A\	in	4.c/	in	.	(<8f/L	in	.
.	.	.	.	8en/	.	.	.	.	.	.	.	.	.	.	.	8en/	.	.
.	.	.	.	8e-X/J	.	.	.	.	.	.	.	.	.	.	.	8e-X/J)	.	.
!LO:N:vis=4	!	!	!	!	!	!	!	!	!	!	!	!	!	!	!	!	!	!
8A 8F\	ex-	.	.	8c/	8c\	.	.	8F\	ex-	.	8A\	ex-	8c/	ex-	.	8c/	ex-	.
*	*	*	*	*v	*v	*	*	*	*	*	*	*	*	*	*	*	*	*
=52	=52	=52	=52	=52	=52	=52	=52	=52	=52	=52	=52	=52	=52	=52	=52	=52	=52
!LO:TX:b:t=P:problem:nuta 1FF skreślona w źródle	!	!	!	!	!	!	!	!	!	!	!	!	!	!	!	!	!
1E- 1AA 1FF	-cel-	.	.	1c 1A	.	.	1BB-	-cel-	.	1E-	-cel-	1A	-cel-	.	1c	-cel-	.
.	.	.	.	4qqBn/	.	.	.	.	.	.	.	.	.	.	(<8qqBn/L	.	.
.	.	.	.	4qqc/	.	.	.	.	.	.	.	.	.	.	8qqc/	.	.
.	.	.	.	4qqe-/	.	.	.	.	.	.	.	.	.	.	8qqe-/	.	.
.	.	.	.	4qqd/	.	.	.	.	.	.	.	.	.	.	8qqd/J)	.	.
=53	=53	=53	=53	=53	=53	=53	=53	=53	=53	=53	=53	=53	=53	=53	=53	=53	=53
*^	*	*	*	*^	*	*	*	*	*	*	*	*	*	*	*	*	*
4D/	4BB-\	-sis	.	.	4B-/	4B-\	.	.	4BB-/	-sis	.	4D/	-sis	4B-/	-sis	.	4B-/	-sis	.
4r	4ryy	.	.	.	4r	4ryy	.	.	4r	.	.	4r	.	4r	.	.	4r	.	.
2r	2ryy	.	.	.	2r	2ryy	.	.	2r	.	.	2r	.	2r	.	.	2r	.	.
*v	*v	*	*	*	*	*	*	*	*	*	*	*	*	*	*	*	*	*	*
*	*	*	*	*v	*v	*	*	*	*	*	*	*	*	*	*	*	*	*
==	==	==	==	==	==	==	==	==	==	==	==	==	==	==	==	==	==
*-	*-	*-	*-	*-	*-	*-	*-	*-	*-	*-	*-	*-	*-	*-	*-	*-	*-
!!!system-decoration: [g1][s5,s6]
!!!RDF**kern: > = above
!!!RDF**kern: < = below
!!!EED: Mateusz Mrugas
!!!EST: 2021-01-24
!!!AIN: 1 alto 1 empty 2 organ 1 soprn 1 tenor
!!!ENC: Kamil Watkowski
!!!END: 2021-01-22
